icon-themes/sifr_svg/cmd/sc_checkbox.svg

<svg viewBox="0 0 16 16" xmlns="http://www.w3.org/2000/svg"><path d="m2.9355469 2c-.5178898 0-.9355469.4176571-.9355469.9355469v10.1289061c0 .51789.4176571.935547.9355469.935547h10.1289061c.51789 0 .935547-.417657.935547-.935547v-10.1289061c0-.5178898-.417657-.9355469-.935547-.9355469zm.0644531 1h10v10h-10zm7.523438 2-3.523438 4-1.6816406-1.4902344-1.3183594 1.5859375 3 2.9042969 5-5.5761719z" fill="#555753"/></svg>

<svg xmlns="http://www.w3.org/2000/svg" viewBox="0 0 16 16">
  <path
     style="fill:#555753"
     d="M 2.9355469 2 C 2.4176571 2 2 2.4176571 2 2.9355469 L 2 13.064453 C 2 13.582343 2.4176571 14 2.9355469 14 L 13.064453 14 C 13.582343 14 14 13.582343 14 13.064453 L 14 2.9355469 C 14 2.4176571 13.582343 2 13.064453 2 L 2.9355469 2 z M 3 3 L 13 3 L 13 13 L 3 13 L 3 3 z M 10.523438 5 L 7 9 L 5.3183594 7.5097656 L 4 9.0957031 L 7 12 L 12 6.4238281 L 10.523438 5 z "
     />
</svg>
